app/src/main/assets/symbols/shopping/hairdresser.svg

<?xml version="1.0" encoding="UTF-8" standalone="no"?>
<svg
   xmlns:dc="http://purl.org/dc/elements/1.1/"
   xmlns:cc="http://creativecommons.org/ns#"
   xmlns:rdf="http://www.w3.org/1999/02/22-rdf-syntax-ns#"
   xmlns:svg="http://www.w3.org/2000/svg"
   xmlns="http://www.w3.org/2000/svg"
   id="svg2"
   viewBox="0 0 16 16"
   height="16"
   width="16"
   version="1.1">
   <metadata id="metadata8">
    <rdf:RDF>
      <cc:Work rdf:about="">
        <dc:format>image/svg+xml</dc:format>
        <dc:type rdf:resource="http://purl.org/dc/dcmitype/StillImage"/>
        <dc:title/>
      </cc:Work>
    </rdf:RDF>
  </metadata>
  <defs id="defs6"/>
  <rect width="16" height="16" x="0" y="0" id="canvas" style="fill:none;stroke:none;visibility:hidden"/>
  <path d="M 4,0 4,9.53125 C 3.580263,9.212414 3.064535,9 2.5,9 1.12521,9 0,10.12521 0,11.5 0,12.87479 1.12521,14 2.5,14 3.702941,14 4.703332,13.136374 4.9375,12 l 0.125,0 C 5.296668,13.136374 6.297059,14 7.5,14 8.87479,14 10,12.87479 10,11.5 10,10.12521 8.87479,9 7.5,9 6.935465,9 6.419737,9.212414 6,9.53125 L 6,0 z m 4,0 0,2 4,0 0,1 -4,0 0,1 4,0 0,1 -4,0 0,1 4,0 0,1 -4,0 0,1 4,0 0,6 2,0 0,-12 C 14,1 13,0 12,0 z M 2.5,10 C 3.334349,10 4,10.665651 4,11.5 4,12.334349 3.334349,13 2.5,13 1.665651,13 1,12.334349 1,11.5 1,10.665651 1.665651,10 2.5,10 z m 5,0 C 8.334349,10 9,10.665651 9,11.5 9,12.334349 8.334349,13 7.5,13 6.665651,13 6,12.334349 6,11.5 6,10.665651 6.665651,10 7.5,10 z" id="hairdresser" style="fill:#ac39ac;fill-opacity:1;stroke:none" transform="translate(1,1)"/>
</svg>

<?xml version="1.0" encoding="UTF-8"?>
<svg version="1.1" viewBox="0 0 16 16" xmlns="http://www.w3.org/2000/svg" xmlns:cc="http://creativecommons.org/ns#" xmlns:dc="http://purl.org/dc/elements/1.1/" xmlns:rdf="http://www.w3.org/1999/02/22-rdf-syntax-ns#">
<metadata>
<rdf:RDF>
<cc:Work rdf:about="">
<dc:format>image/svg+xml</dc:format>
<dc:type rdf:resource="http://purl.org/dc/dcmitype/StillImage"/>
<dc:title/>
</cc:Work>
</rdf:RDF>
</metadata>
<rect width="16" height="16" fill="none" visibility="hidden"/>
<path transform="translate(1,1)" d="m4 0v9.5312c-0.41974-0.31884-0.93546-0.53125-1.5-0.53125-1.3748 0-2.5 1.1252-2.5 2.5s1.1252 2.5 2.5 2.5c1.2029 0 2.2033-0.86363 2.4375-2h0.125c0.23417 1.1364 1.2346 2 2.4375 2 1.3748 0 2.5-1.1252 2.5-2.5s-1.1252-2.5-2.5-2.5c-0.56454 0-1.0803 0.21241-1.5 0.53125v-9.5312zm4 0v2h4v1h-4v1h4v1h-4v1h4v1h-4v1h4v6h2v-12c0-1-1-2-2-2zm-5.5 10c0.83435 0 1.5 0.66565 1.5 1.5s-0.66565 1.5-1.5 1.5-1.5-0.66565-1.5-1.5 0.66565-1.5 1.5-1.5zm5 0c0.83435 0 1.5 0.66565 1.5 1.5s-0.66565 1.5-1.5 1.5-1.5-0.66565-1.5-1.5 0.66565-1.5 1.5-1.5z" fill="#ac39ac"/>
</svg>
